copytrade/img/icons/dollar.svg

<svg width="24" height="24" viewBox="0 0 24 24" fill="none" xmlns="http://www.w3.org/2000/svg">
<path d="M5 21V5C5 4.46957 5.21071 3.96086 5.58579 3.58579C5.96086 3.21071 6.46957 3 7 3H17C17.5304 3 18.0391 3.21071 18.4142 3.58579C18.7893 3.96086 19 4.46957 19 5V21L16 19L14 21L12 19L10 21L8 19L5 21Z" fill="#A6ACB7" stroke="#A6ACB7" stroke-width="2" stroke-linecap="round" stroke-linejoin="round"/>
<path d="M14 8H11.5C11.1022 8 10.7206 8.15804 10.4393 8.43934C10.158 8.72064 10 9.10218 10 9.5C10 9.89782 10.158 10.2794 10.4393 10.5607C10.7206 10.842 11.1022 11 11.5 11H12.5C12.8978 11 13.2794 11.158 13.5607 11.4393C13.842 11.7206 14 12.1022 14 12.5C14 12.8978 13.842 13.2794 13.5607 13.5607C13.2794 13.842 12.8978 14 12.5 14H10M12 14V15.5M12 6.5V8" stroke="white" stroke-width="2" stroke-linecap="round" stroke-linejoin="round"/>
</svg>

<svg width="24" height="24" fill="none" xmlns="http://www.w3.org/2000/svg"><path d="M5 21V5a2 2 0 012-2h10a2 2 0 012 2v16l-3-2-2 2-2-2-2 2-2-2-3 2z" fill="#A6ACB7" stroke="#A6ACB7" stroke-width="2" stroke-linecap="round" stroke-linejoin="round"/><path d="M14 8h-2.5a1.5 1.5 0 000 3h1a1.5 1.5 0 110 3H10m2 0v1.5m0-9V8" stroke="#fff" stroke-width="2" stroke-linecap="round" stroke-linejoin="round"/></svg>
